X:1393
L:1/8
M:6/8
K:D
 d2 a f2 e | f2 g f2 e | d2 a f2 e | e2 A d2 :: e2 f e2 d | e2 f e2 d | d2 a f2 e | f2 g a3 | 
 f2 a f2 e | f2 g f2 e | d2 a f2 d | e2 A d3 :: ded d2 e | fgf f2 e | d2 A dgf | edc d3 :: aba a3 | 
 ABA A3 | gag g3 | GAG G3 | d2 A d2 e | fgf f2 e | d2 A dgf | edc d3 :|

